svgs/thin/utility-pole-double.svg

<svg xmlns="http://www.w3.org/2000/svg" viewBox="0 0 512 512"><!--! Font Awesome Pro 6.6.0 by @fontawesome - https://fontawesome.com License - https://fontawesome.com/license (Commercial License) Copyright 2024 Fonticons, Inc. --><path d="M264 16c4.4 0 8 3.6 8 8l0 56-32 0 0-56c0-4.4 3.6-8 8-8l16 0zm-40 8l0 56L80 80l0-40c0-4.4-3.6-8-8-8s-8 3.6-8 8l0 40L16 80l0-40c0-4.4-3.6-8-8-8s-8 3.6-8 8L0 80 0 96l0 16c0 17.7 14.3 32 32 32l69.5 0L224 228.2l0 43.8L80 272l0-40c0-4.4-3.6-8-8-8s-8 3.6-8 8l0 40-48 0 0-40c0-4.4-3.6-8-8-8s-8 3.6-8 8l0 40 0 16 0 16c0 17.7 14.3 32 32 32l69.5 0L224 420.2l0 83.8c0 4.4 3.6 8 8 8s8-3.6 8-8l0-87.9 0-.2 0-79.9 32 0 0 79.9 0 .2 0 87.9c0 4.4 3.6 8 8 8s8-3.6 8-8l0-83.8L410.5 336l69.5 0c17.7 0 32-14.3 32-32l0-16 0-16 0-40c0-4.4-3.6-8-8-8s-8 3.6-8 8l0 40-48 0 0-40c0-4.4-3.6-8-8-8s-8 3.6-8 8l0 40-144 0 0-43.8L410.5 144l69.5 0c17.7 0 32-14.3 32-32l0-16 0-16 0-40c0-4.4-3.6-8-8-8s-8 3.6-8 8l0 40-48 0 0-40c0-4.4-3.6-8-8-8s-8 3.6-8 8l0 40L288 80l0-56c0-13.3-10.7-24-24-24L248 0c-13.3 0-24 10.7-24 24zM408.1 128l-.2 0L288 128l-16 0-32 0-16 0-119.9 0-.2 0L32 128c-8.8 0-16-7.2-16-16l0-16 208 0 16 0 32 0 16 0 208 0 0 16c0 8.8-7.2 16-16 16l-71.9 0zM129.8 144l94.2 0 0 64.8L129.8 144zM240 224.1l0-.2 0-79.9 32 0 0 79.9 0 .2 0 47.9-32 0 0-47.9zm48-15.3l0-64.8 94.2 0L288 208.8zM408.1 320l-.2 0L280 320l-48 0-127.9 0-.2 0L32 320c-8.8 0-16-7.2-16-16l0-16 208 0 16 0 32 0 16 0 208 0 0 16c0 8.8-7.2 16-16 16l-71.9 0zM129.8 336l94.2 0 0 64.8L129.8 336zm252.5 0L288 400.8l0-64.8 94.2 0z"/></svg>

<svg xmlns="http://www.w3.org/2000/svg" viewBox="0 0 512 512"><!--! Font Awesome Pro 6.4.2 by @fontawesome - https://fontawesome.com License - https://fontawesome.com/license (Commercial License) Copyright 2023 Fonticons, Inc. --><path d="M264 16c4.4 0 8 3.6 8 8V80H240V24c0-4.4 3.6-8 8-8h16zm-40 8V80H80V40c0-4.4-3.6-8-8-8s-8 3.6-8 8V80H16V40c0-4.4-3.6-8-8-8s-8 3.6-8 8V80 96v16c0 17.7 14.3 32 32 32h69.5L224 228.2V272H80V232c0-4.4-3.6-8-8-8s-8 3.6-8 8v40H16V232c0-4.4-3.6-8-8-8s-8 3.6-8 8v40 16 16c0 17.7 14.3 32 32 32h69.5L224 420.2V504c0 4.4 3.6 8 8 8s8-3.6 8-8V416.1c0-.1 0-.1 0-.2V336h32v79.9c0 .1 0 .1 0 .2V504c0 4.4 3.6 8 8 8s8-3.6 8-8V420.2L410.5 336H480c17.7 0 32-14.3 32-32V288 272 232c0-4.4-3.6-8-8-8s-8 3.6-8 8v40H448V232c0-4.4-3.6-8-8-8s-8 3.6-8 8v40H288V228.2L410.5 144H480c17.7 0 32-14.3 32-32V96 80 40c0-4.4-3.6-8-8-8s-8 3.6-8 8V80H448V40c0-4.4-3.6-8-8-8s-8 3.6-8 8V80H288V24c0-13.3-10.7-24-24-24H248c-13.3 0-24 10.7-24 24zM408.1 128c-.1 0-.1 0-.2 0H288 272 240 224 104.1c-.1 0-.1 0-.2 0H32c-8.8 0-16-7.2-16-16V96H224h16 32 16H496v16c0 8.8-7.2 16-16 16H408.1zM129.8 144H224v64.8L129.8 144zM240 224.1c0-.1 0-.1 0-.2V144h32v79.9c0 .1 0 .1 0 .2V272H240V224.1zm48-15.3V144h94.2L288 208.8zM408.1 320c-.1 0-.1 0-.2 0H280 232 104.1c-.1 0-.1 0-.2 0H32c-8.8 0-16-7.2-16-16V288H224h16 32 16H496v16c0 8.8-7.2 16-16 16H408.1zM129.8 336H224v64.8L129.8 336zm252.5 0L288 400.8V336h94.2z"/></svg>
